!!!OTL: Liebeshoffnung
!!!ARE: Europa, Mitteleuropa, Deutschland
!!!SCT: A0128C
!!!YEM: Copyright 1995, estate of Helmut Schaffrath.
**kern
*ICvox
*Ivox
!! Mixed meters:  4/2; 6/2
*M4/2
*k[b-]
*F:
{1f
1a
2g
2f
=1
1e
1d}
=2
{1c
=3
*M6/2
2f
1f
2a
1g
=4
*M4/2
0f}
=5
*M6/2
{1f
1a
2g
2f
=6
*M4/2
1e
1d}
=7
{1c
=8
*M6/2
2f
1f
2a
1g
=9
*M4/2
1.f}
{2f
=10
2a
2a
2b-
2b-
=11
1cc
1cc}
=12
{1dd
=13
*M6/2
2cc
1b-
2a
1g
=14
*M4/2
1f
2r}
{2f
=15
2a
2a
2b-
2b-
=16
1cc
1f}
=17
{2a
2a
2g
2f
=18
1e
1d}
=19
{1c
=20
*M6/2
2f
1f
2a
1g
=21
0f}
==
!!!AGN: Romanze, Ballade, Lied
!! Boehm. Bruedergsgb. 1531 Bl. 9 "Gott sah zu seiner Zeit"
!!!ONB: ESAC (Essen Associative Code) Database: ALTDEU
!!!AMT: irregular
!!!AIN: vox
!!!EED: Helmut Schaffrath
!!!EEV: 1.0
*-
